status/24/notification-new-70-symbolic.svg

<?xml version="1.0" encoding="UTF-8" standalone="no"?>
<svg
   xmlns:dc="http://purl.org/dc/elements/1.1/"
   xmlns:cc="http://creativecommons.org/ns#"
   xmlns:rdf="http://www.w3.org/1999/02/22-rdf-syntax-ns#"
   xmlns:svg="http://www.w3.org/2000/svg"
   xmlns="http://www.w3.org/2000/svg"
   height="24"
   width="24"
   version="1.1"
   id="svg8">
  <metadata
     id="metadata14">
    <rdf:RDF>
      <cc:Work
         rdf:about="">
        <dc:format>image/svg+xml</dc:format>
        <dc:type
           rdf:resource="http://purl.org/dc/dcmitype/StillImage" />
        <dc:title />
      </cc:Work>
    </rdf:RDF>
  </metadata>
  <defs
     id="defs12" />
  <path
     id="path2-3-5-2-2-5-19-5"
     d="M 13.990234 5.0097656 C 13.600547 5.0126677 13.230786 5.2442701 13.072266 5.6269531 L 13.068359 5.6347656 C 11.264109 5.3809999 9.4686312 6.491285 8.7695312 8.1738281 C 8.7695312 8.1738281 6.8572275 12.793948 5.0859375 12.732422 C 5.0669375 12.736422 5.05155 12.751279 5.03125 12.755859 C 4.95415 12.777379 4.8823863 12.812071 4.8164062 12.857422 C 4.7894062 12.875482 4.7619812 12.88574 4.7382812 12.90625 C 4.6484812 12.9805 4.57761 13.076631 4.53125 13.183594 C 4.37206 13.567928 4.5541 14.003296 4.9375 14.162109 L 14.636719 18.181641 C 15.021059 18.340838 15.457987 18.159728 15.617188 17.775391 C 15.659987 17.666936 15.677016 17.549628 15.666016 17.433594 C 15.664016 17.402364 15.652284 17.37427 15.646484 17.34375 C 15.631684 17.26484 15.604153 17.188943 15.564453 17.119141 C 15.554253 17.101931 15.554469 17.081113 15.542969 17.064453 C 14.246589 15.856393 16.162109 11.236328 16.162109 11.236328 C 16.857889 9.5513308 16.372536 7.4961921 14.916016 6.4003906 L 14.919922 6.3925781 C 15.131272 5.8823335 14.889106 5.2972859 14.378906 5.0859375 C 14.251346 5.0331004 14.12013 5.0087983 13.990234 5.0097656 z M 6.8964844 16.060547 C 6.7832284 16.888384 7.1922929 17.730166 7.9824219 18.121094 C 8.8566329 18.552915 9.8918904 18.285446 10.458984 17.535156 L 6.8964844 16.060547 z "
     style="color:#bebebe;overflow:visible;isolation:auto;mix-blend-mode:normal;fill:#666666;marker:none" />
</svg>

<?xml version="1.0" encoding="UTF-8" standalone="no"?>
<svg
   xmlns:dc="http://purl.org/dc/elements/1.1/"
   xmlns:cc="http://creativecommons.org/ns#"
   xmlns:rdf="http://www.w3.org/1999/02/22-rdf-syntax-ns#"
   xmlns:svg="http://www.w3.org/2000/svg"
   xmlns="http://www.w3.org/2000/svg"
   id="svg8"
   version="1.1"
   width="24"
   height="24">
  <metadata
     id="metadata14">
    <rdf:RDF>
      <cc:Work
         rdf:about="">
        <dc:format>image/svg+xml</dc:format>
        <dc:type
           rdf:resource="http://purl.org/dc/dcmitype/StillImage" />
        <dc:title />
      </cc:Work>
    </rdf:RDF>
  </metadata>
  <defs
     id="defs12" />
  <rect
     ry="1.0032299"
     rx="1.3287197"
     y="0"
     x="-26"
     height="24"
     width="24"
     id="rect843-2-2"
     style="opacity:1;vector-effect:none;fill:#f9f9f9;fill-opacity:1;stroke:none;stroke-width:1;stroke-linecap:butt;stroke-linejoin:miter;stroke-miterlimit:4;stroke-dasharray:none;stroke-dashoffset:0;stroke-opacity:1;marker:none" />
  <path
     d="m -11.50144,5.1335884 c -0.47829,-0.27614 -1.08988,-0.1122672 -1.36603,0.3660254 l -0.005,0.00866 c -1.75567,-0.4870922 -3.68034,0.3785433 -4.59307,1.9554416 0,0 -2.5,4.3301266 -4.2481,4.0379286 -0.0194,0.0015 -0.0354,0.01535 -0.0561,0.01724 -0.0793,0.01127 -0.1561,0.03557 -0.22743,0.07192 -0.0291,0.01438 -0.0578,0.02207 -0.0839,0.03932 -0.0988,0.06188 -0.18155,0.146256 -0.24148,0.246252 -0.208,0.360267 -0.0849,0.817019 0.27452,1.024519 l 9.09327,5.25 c 0.36027,0.208 0.81652,0.08575 1.02452,-0.274519 0.0566,-0.101946 0.0883,-0.215771 0.0925,-0.332252 0.002,-0.03125 -0.005,-0.0608 -0.007,-0.09182 -0.004,-0.08017 -0.022,-0.159033 -0.0523,-0.233421 -0.008,-0.01839 -0.004,-0.03921 -0.0131,-0.05724 -1.1276,-1.366936 1.3729,-5.697929 1.3729,-5.697929 0.90977,-1.5797639 0.69796,-3.6788994 -0.60308,-4.955441 l 0.005,-0.00866 c 0.27612,-0.4782918 0.11224,-1.0898846 -0.36605,-1.3660246 z"
     overflow="visible"
     style="color:#bebebe;overflow:visible;isolation:auto;mix-blend-mode:normal;fill:#666666;marker:none"
     id="path2-3-5-2-2-5-1-0" />
  <path
     d="M 14.37944,5.0852311 C 13.8692,4.8738827 13.28423,5.1161831 13.07287,5.6264272 l -0.004,0.00924 C 11.26462,5.3819015 9.4694,6.4913519 8.7703,8.173895 c 0,0 -1.91341,4.619398 -3.6847,4.557872 -0.019,0.004 -0.0331,0.01984 -0.0534,0.02442 -0.0771,0.02152 -0.15012,0.05564 -0.2161,0.100991 -0.027,0.01806 -0.0544,0.02942 -0.0781,0.04993 -0.0898,0.07425 -0.16091,0.168702 -0.20727,0.275665 -0.15919,0.384334 0.0225,0.821109 0.4059,0.979922 l 9.70073,4.018176 c 0.38434,0.159197 0.82073,-0.02156 0.97993,-0.405897 0.0428,-0.108455 0.0594,-0.225452 0.0484,-0.341486 -0.002,-0.03123 -0.0132,-0.05959 -0.019,-0.09011 -0.0148,-0.07891 -0.0426,-0.154795 -0.0823,-0.224597 -0.0102,-0.01721 -0.009,-0.03837 -0.0205,-0.05503 -1.29638,-1.20806 0.61742,-5.828382 0.61742,-5.828382 0.69578,-1.6849973 0.21179,-3.7385277 -1.24473,-4.8343292 l 0.004,-0.00924 c 0.21135,-0.5102446 -0.031,-1.0952146 -0.5412,-1.306563 z"
     overflow="visible"
     style="color:#bebebe;overflow:visible;isolation:auto;mix-blend-mode:normal;fill:#666666;marker:none"
     id="path2-3-5-2-2-5-19-5" />
  <path
     style="opacity:1;vector-effect:none;fill:#666666;fill-opacity:1;stroke:none;stroke-width:1;stroke-linecap:butt;stroke-linejoin:miter;stroke-miterlimit:4;stroke-dasharray:none;stroke-dashoffset:0;stroke-opacity:1;marker:none"
     d="m 6.896484,16.060547 c -0.113256,0.827837 0.295809,1.669619 1.085938,2.060547 0.874211,0.431821 1.909468,0.164352 2.476562,-0.585938 z"
     id="path832-5-1-7-7-4-5-1-2" />
  <path
     style="opacity:1;vector-effect:none;fill:#666666;fill-opacity:1;stroke:none;stroke-width:1;stroke-linecap:butt;stroke-linejoin:miter;stroke-miterlimit:4;stroke-dasharray:none;stroke-dashoffset:0;stroke-opacity:1;marker:none"
     d="m -21.150391,14.539062 c -0.14411,0.696526 0.07928,1.446102 0.66211,1.935547 0.765685,0.642149 1.866815,0.60589 2.595703,-0.0332 l -3.113281,-1.796875 c -0.06024,-0.03478 -0.08961,-0.06963 -0.144532,-0.105469 z"
     id="path832-5-1-7-7-4-5-1-2-7" />
</svg>
